svg/u1f0cf.svg

<svg viewBox="0 0 128 128" xmlns="http://www.w3.org/2000/svg">
  <path d="M102.29,125.43l-76.02-0.37c-3.45,0-6.25-2.8-6.25-6.25l12.2-92.13l70.19-22.18 c6.13-0.33,6.48,2.53,6.48,5.98l-0.37,108.69C108.54,122.64,105.74,125.43,102.29,125.43z" fill="#D9CDC9"/>
  <path d="M101.83,122.06c0,0-57.76,0.98-76.47-0.08c-3.58-0.2-5.33-1.62-5.34-3.16L19.85,10.33 c0-3.45,2.8-6.25,6.25-6.25l75.64,0.32c3.45,0,4.76,2.86,4.76,6.31l-0.57,105.4C105.91,119.56,105.28,122.06,101.83,122.06z" fill="#F1EDEC"/>
  <path d="M29.82,12.56c0,0,1.52-3.52,2.23-3.56c0.63-0.04,2.29,3.62,2.29,3.62s3.44,0.06,3.74,0.54 s-2.47,3.74-2.47,3.74s1.15,3.98,0.66,4.29c-0.48,0.3-4.16-1.81-4.16-1.81s-3.86,2.11-4.47,1.69c-0.6-0.42,0.66-4.59,0.66-4.59 s-2.56-2.65-2.29-3.32C26.26,12.55,29.82,12.56,29.82,12.56z" fill="#DA0E21"/>
  <path d="M98.27,113.61c0,0-1.5,3.53-2.21,3.58c-0.63,0.04-2.32-3.61-2.32-3.61s-3.57,0.02-3.87-0.46 c-0.3-0.48,2.35-3.8,2.35-3.8s-0.9-3.93-0.46-4.29c0.61-0.49,4.18,1.78,4.18,1.78s3.85-2.14,4.46-1.72 c0.61,0.42-0.63,4.59-0.63,4.59s2.57,2.63,2.31,3.3C101.83,113.6,98.27,113.61,98.27,113.61z" fill="#DA0E21"/>
  <path d="M67.14,27.16c-1.59-0.19-5.54,7.32-7.51,12.03c-2.71,6.47-2.6,9.4-2.6,9.4l-0.14,8.49l16.36-0.13 c0,0,0.57-4.58,0.57-7.19s-0.55-6.93-1.78-11.46C70.9,34.1,68.73,27.35,67.14,27.16z" fill="#FFB803"/>
  <path d="M67.78,20.44c-2.14-0.07-4.5,0.77-4.92,4.21c-0.38,3.08,2.29,4.89,4.39,4.96 c3.49,0.11,5.07-2.37,5.07-5C72.32,22.31,70.03,20.51,67.78,20.44z" fill="#FD8F01"/>
  <path d="M72.52,57.56l7.62,3.23c0,0,1.1-8.05,4.82-11.03c4.27-3.43,7.01-2.26,7.01-2.26l2.68-2.87 c0,0-3.23-6.16-11.03-5c-7.19,1.07-10.09,6.07-10.09,6.07s0.2,2.29-0.21,6.17C72.96,55.11,72.52,57.56,72.52,57.56z" fill="#00C1EC"/>
  <path d="M91.72,45.06c-1.95,1.84-1.88,5.49,0.55,7.25c2.26,1.65,5.67,1.59,7.25-1.04 c1.47-2.43,0.87-5.65-1.16-6.77C95.93,43.17,93.86,43.05,91.72,45.06z" fill="#016AA9"/>
  <path d="M35.75,45.67l2.68,2.44c0,0,4.5-2.63,7.93,1.4c3.48,4.08,4.33,10.36,4.33,10.36l7.96-3.95 c0,0-0.16-7.9-1.02-10.34c-0.62-1.78-3.34-6.43-11.58-6.37C39.11,39.26,35.75,45.67,35.75,45.67z" fill="#FF605E"/>
  <path d="M32.69,52.02c1.8,2.03,5.3,1.84,6.72-0.19c1.32-1.89,1.09-4.49-0.52-5.96s-4.07-1.94-6.15,0.09 C30.87,47.8,31.62,50.81,32.69,52.02z" fill="#DA0E21"/>
  <path d="M50.46,59.41c0,0,4.18-4.62,14.99-4.4c11.12,0.22,14.92,4.48,14.92,4.48s1.85,6.39,0,12.36 c-1.85,5.97-3.1,6.32-2.95,7.89c0.14,1.56,1.39,3.91,4.59,5.97c3.2,2.06,6.11,1.99,6.25,2.91c0.14,0.92-1.63,2.49-5.82,2.13 c-4.19-0.36-7.03-1.99-7.25-1.63s0.64,3.48,2.56,5.82c1.92,2.34,4.55,3.76,4.19,4.62s-6.96,1.21-11.08-2.63 c-4.12-3.84-5-6.74-5.78-6.67s-2.4,3.42-6.44,6.53c-4.62,3.56-8.67,4.19-9.45,2.84c-0.92-1.59,2.91-3.13,4.33-6.46 c1.42-3.34,2.06-5.47,1.78-5.75c-0.28-0.28-1.42,2.56-5.47,3.27c-4.05,0.71-6.89,0-6.96-1.07c-0.07-1.07,2.63-1.21,5.9-4.33 c3.2-3.06,4.25-4.6,4.2-6.13c-0.06-1.88-2.12-2.69-3.11-9.21C49.08,64.83,50.46,59.41,50.46,59.41z" fill="#7958C2"/>
  <path d="M53.08,61.26c0,0,2.16-3.82,11.84-3.75c10.13,0.07,13.22,4.15,13.22,4.15s1.98,19.77-12.62,19.47 C50.03,80.79,53.08,61.26,53.08,61.26z" fill="#F1EDEC"/>
  <path d="M71.61,60.68c-0.82,0-1.17,1.36-1.3,4.07c-0.12,2.63,0.3,4.23,1.21,4.23s1.38-1.43,1.45-3.73 C73.08,62.19,72.55,60.68,71.61,60.68z" fill="#4F322C"/>
  <path d="M68.19,64.76c0,0.63,1.26,1.33,3.51,1.37c2.25,0.04,3.32-0.36,3.41-1.16 c0.07-0.63-0.84-1.19-3.51-1.26S68.19,64.02,68.19,64.76z" fill="#4F322C"/>
  <path d="M58.78,60.8c0.82,0,1.17,1.36,1.3,4.07c0.12,2.63-0.3,4.23-1.21,4.23s-1.38-1.43-1.45-3.73 C57.31,62.31,57.85,60.8,58.78,60.8z" fill="#4F322C"/>
  <path d="M62.2,64.89c0,0.63-1.26,1.33-3.51,1.37c-2.25,0.04-3.32-0.36-3.41-1.16 c-0.07-0.63,0.84-1.19,3.51-1.26C61.47,63.76,62.2,64.15,62.2,64.89z" fill="#4F322C"/>
  <path d="M60.36,72.13c-0.4,0.79,0.6,3.87,5.06,3.93s5.48-2.91,5.2-3.73c-0.33-0.97-2.2-0.43-5.26-0.47 C62.42,71.83,60.76,71.33,60.36,72.13z" fill="#4F322C"/>
</svg>

<svg viewBox="0 0 128 128" xmlns="http://www.w3.org/2000/svg">
  <defs/>
  <path d="M102.29,125.43 L26.27,125.06 C22.82,125.06 20.02,122.26 20.02,118.81 L32.22,26.68 L102.41,4.5 C108.54,4.17 108.89,7.03 108.89,10.48 L108.52,119.17 C108.54,122.64 105.74,125.43 102.29,125.43 Z" fill="#D9CDC9"/>
  <path d="M101.83,122.06 C101.83,122.06 44.07,123.04 25.36,121.98 C21.78,121.78 20.03,120.36 20.02,118.82 L19.85,10.33 C19.85,6.88 22.65,4.08 26.1,4.08 L101.74,4.4 C105.19,4.4 106.5,7.26 106.5,10.71 L105.93,116.11 C105.91,119.56 105.28,122.06 101.83,122.06 Z" fill="#F1EDEC"/>
  <path d="M29.82,12.56 C29.82,12.56 31.34,9.04 32.05,9 C32.68,8.96 34.34,12.62 34.34,12.62 C34.34,12.62 37.78,12.68 38.08,13.16 C38.38,13.64 35.61,16.9 35.61,16.9 C35.61,16.9 36.76,20.88 36.27,21.19 C35.79,21.49 32.11,19.38 32.11,19.38 C32.11,19.38 28.25,21.49 27.64,21.07 C27.04,20.65 28.3,16.48 28.3,16.48 C28.3,16.48 25.74,13.83 26.01,13.16 C26.26,12.55 29.82,12.56 29.82,12.56 Z" fill="#DA0E21"/>
  <path d="M98.27,113.61 C98.27,113.61 96.77,117.14 96.06,117.19 C95.43,117.23 93.74,113.58 93.74,113.58 C93.74,113.58 90.17,113.6 89.87,113.12 C89.57,112.64 92.22,109.32 92.22,109.32 C92.22,109.32 91.32,105.39 91.76,105.03 C92.37,104.54 95.94,106.81 95.94,106.81 C95.94,106.81 99.79,104.67 100.4,105.09 C101.01,105.51 99.77,109.68 99.77,109.68 C99.77,109.68 102.34,112.31 102.08,112.98 C101.83,113.6 98.27,113.61 98.27,113.61 Z" fill="#DA0E21"/>
  <path d="M67.14,27.16 C65.55,26.97 61.6,34.48 59.63,39.19 C56.92,45.66 57.03,48.59 57.03,48.59 L56.89,57.08 L73.25,56.95 C73.25,56.95 73.82,52.37 73.82,49.76 C73.82,47.15 73.27,42.83 72.04,38.3 C70.9,34.1 68.73,27.35 67.14,27.16 Z" fill="#FFB803"/>
  <path d="M67.78,20.44 C65.64,20.37 63.28,21.21 62.86,24.65 C62.48,27.73 65.15,29.54 67.25,29.61 C70.74,29.72 72.32,27.24 72.32,24.61 C72.32,22.31 70.03,20.51 67.78,20.44 Z" fill="#FD8F01"/>
  <path d="M72.52,57.56 L80.14,60.79 C80.14,60.79 81.24,52.74 84.96,49.76 C89.23,46.33 91.97,47.5 91.97,47.5 L94.65,44.63 C94.65,44.63 91.42,38.47 83.62,39.63 C76.43,40.7 73.53,45.7 73.53,45.7 C73.53,45.7 73.73,47.99 73.32,51.87 C72.96,55.11 72.52,57.56 72.52,57.56 Z" fill="#00C1EC"/>
  <path d="M91.72,45.06 C89.77,46.9 89.84,50.55 92.27,52.31 C94.53,53.96 97.94,53.9 99.52,51.27 C100.99,48.84 100.39,45.62 98.36,44.5 C95.93,43.17 93.86,43.05 91.72,45.06 Z" fill="#016AA9"/>
  <path d="M35.75,45.67 L38.43,48.11 C38.43,48.11 42.93,45.48 46.36,49.51 C49.84,53.59 50.69,59.87 50.69,59.87 L58.65,55.92 C58.65,55.92 58.49,48.02 57.63,45.58 C57.01,43.8 54.29,39.15 46.05,39.21 C39.11,39.26 35.75,45.67 35.75,45.67 Z" fill="#FF605E"/>
  <path d="M32.69,52.02 C34.49,54.05 37.99,53.86 39.41,51.83 C40.73,49.94 40.5,47.34 38.89,45.87 C37.28,44.4 34.82,43.93 32.74,45.96 C30.87,47.8 31.62,50.81 32.69,52.02 Z" fill="#DA0E21"/>
  <path d="M50.46,59.41 C50.46,59.41 54.64,54.79 65.45,55.01 C76.57,55.23 80.37,59.49 80.37,59.49 C80.37,59.49 82.22,65.88 80.37,71.85 C78.52,77.82 77.27,78.17 77.42,79.74 C77.56,81.3 78.81,83.65 82.01,85.71 C85.21,87.77 88.12,87.7 88.26,88.62 C88.4,89.54 86.63,91.11 82.44,90.75 C78.25,90.39 75.41,88.76 75.19,89.12 C74.97,89.48 75.83,92.6 77.75,94.94 C79.67,97.28 82.3,98.7 81.94,99.56 C81.58,100.42 74.98,100.77 70.86,96.93 C66.74,93.09 65.86,90.19 65.08,90.26 C64.3,90.33 62.68,93.68 58.64,96.79 C54.02,100.35 49.97,100.98 49.19,99.63 C48.27,98.04 52.1,96.5 53.52,93.17 C54.94,89.83 55.58,87.7 55.3,87.42 C55.02,87.14 53.88,89.98 49.83,90.69 C45.78,91.4 42.94,90.69 42.87,89.62 C42.8,88.55 45.5,88.41 48.77,85.29 C51.97,82.23 53.02,80.69 52.97,79.16 C52.91,77.28 50.85,76.47 49.86,69.95 C49.08,64.83 50.46,59.41 50.46,59.41 Z" fill="#7958C2"/>
  <path d="M53.08,61.26 C53.08,61.26 55.24,57.44 64.92,57.51 C75.05,57.58 78.14,61.66 78.14,61.66 C78.14,61.66 80.12,81.43 65.52,81.13 C50.03,80.79 53.08,61.26 53.08,61.26 Z" fill="#F1EDEC"/>
  <path d="M71.61,60.68 C70.79,60.68 70.44,62.04 70.31,64.75 C70.19,67.38 70.61,68.98 71.52,68.98 C72.43,68.98 72.9,67.55 72.97,65.25 C73.08,62.19 72.55,60.68 71.61,60.68 Z" fill="#4F322C"/>
  <path d="M68.19,64.76 C68.19,65.39 69.45,66.09 71.7,66.13 C73.95,66.17 75.02,65.77 75.11,64.97 C75.18,64.34 74.27,63.78 71.6,63.71 C68.93,63.64 68.19,64.02 68.19,64.76 Z" fill="#4F322C"/>
  <path d="M58.78,60.8 C59.6,60.8 59.95,62.16 60.08,64.87 C60.2,67.5 59.78,69.1 58.87,69.1 C57.96,69.1 57.49,67.67 57.42,65.37 C57.31,62.31 57.85,60.8 58.78,60.8 Z" fill="#4F322C"/>
  <path d="M62.2,64.89 C62.2,65.52 60.94,66.22 58.69,66.26 C56.44,66.3 55.37,65.9 55.28,65.1 C55.21,64.47 56.12,63.91 58.79,63.84 C61.47,63.76 62.2,64.15 62.2,64.89 Z" fill="#4F322C"/>
  <path d="M60.36,72.13 C59.96,72.92 60.96,76 65.42,76.06 C69.88,76.12 70.9,73.15 70.62,72.33 C70.29,71.36 68.42,71.9 65.36,71.86 C62.42,71.83 60.76,71.33 60.36,72.13 Z" fill="#4F322C"/>
</svg>
